image/os.svg

<svg fill="none" height="109" viewBox="0 0 117 109" width="117" xmlns="http://www.w3.org/2000/svg" xmlns:xlink="http://www.w3.org/1999/xlink"><clipPath id="a"><path d="m27 24h67v60h-67z"/></clipPath><g clip-path="url(#a)" fill="#ff4d00"><path d="m32.3657 58.8181c2.0702-.0141 4.1474 0 6.2176 0h6.2177c.6196 0 1.2322-.0281 1.5914-.6457 1.6266-2.7863 3.3588-5.5305 3.225-8.9555-.1761-4.4636-1.6759-8.5624-3.394-12.6049-.3944-.9265-.838-.6317-1.2605.028-4.4502 6.9623-8.9004 13.9315-13.3718 20.8797-.676 1.0457-.2746 1.3124.7746 1.3054z"/><path d="m92.1971 62.5937c-4.1756 1.1932-8.3301 2.4775-12.5339 3.5794-1.8871.4913-3.4504 1.3195-4.6967 2.8074-1.9012 2.2809-4.2812 3.2775-7.3443 3.0951-5.2952-.3159-4.5347 1.1089-4.5981-5.0112-.0141-1.0808.4506-1.5791 1.5421-1.551.859.0281 1.7181-.0211 2.5772 0 .7464.014 1.366-.2106 1.9153-.7369 2.4152-2.3161 4.6051-4.8076 6.3162-7.6992 2.0843-3.5232 2.3167-7.1096.5492-10.8153-2.6828-5.6217-7.0274-9.7976-11.886-13.5103-.676-.5194-1.0351-1.0177-1.0281-1.8529.0211-1.4107.0352-2.8284-.0422-4.2321-.0634-1.5089-1.345-2.695-2.7533-2.6669-1.4224.028-2.6757 1.2141-2.7884 2.695-.0563.751-.0563 1.516-.0211 2.2669.0563 1.2563-.3239 1.7616-1.697 1.3405-2.1125-.6456-4.2602-1.151-6.7599-1.8107.3943.8001.5845 1.2072.7816 1.6072 1.9576 3.8812 3.5771 7.8887 4.8023 12.0646 1.8942 6.4569 1.2886 12.5418-2.4011 18.2548-.7676 1.1861-1.4858 2.4002-2.2322 3.6004-.7605 1.2282-.6549 1.4598.7605 1.4879 1.6688.0351 3.3377.0421 5.0065 0 1.183-.0281 1.8097.3719 1.7322 1.6633-.0634 1.1089-.0493 2.2178 0 3.3267.0352 1.0668-.3521 1.5651-1.4928 1.5441-2.3237-.0492-4.6544.028-6.9781-.0281-2.711-.0632-5.1474-2.1827-5.3234-4.8637-.0986-1.5441-.7534-1.8178-2.0843-1.8038-4.0489.0562-8.0907.0211-12.1396.0211-2.3307 0-2.556.2527-2.2955 2.5056 1.0774 9.2151 8.5695 16.0088 17.8925 16.079 9.4075.0702 18.822-.014 28.2294.0421 2.6054.0141 4.7249-.9194 6.5416-2.674 1.8308-1.7686 3.218-3.8811 4.5206-6.0428 1.9928-3.2986 3.9151-6.6815 7.7668-8.1764 1.6055-.6246 2.0984-1.6282 1.9294-3.2495-.1549-1.4738-.3098-1.6703-1.7674-1.2563z"/></g></svg>

<svg width="117" height="109" viewBox="0 0 117 109" fill="none" xmlns="http://www.w3.org/2000/svg">
<g clip-path="url(#clip0_209_2276)">
<path d="M32.3657 58.8181C34.4359 58.804 36.5131 58.8181 38.5833 58.8181C40.6535 58.8181 42.7308 58.8181 44.801 58.8181C45.4206 58.8181 46.0332 58.79 46.3924 58.1724C48.019 55.3861 49.7512 52.6419 49.6174 49.2169C49.4413 44.7533 47.9415 40.6545 46.2234 36.612C45.829 35.6855 45.3854 35.9803 44.9629 36.64C40.5127 43.6023 36.0625 50.5715 31.5911 57.5197C30.9151 58.5654 31.3165 58.8321 32.3657 58.8251V58.8181Z" fill="#FF4D00"/>
<path d="M92.1971 62.5937C88.0215 63.7869 83.867 65.0712 79.6632 66.1731C77.7761 66.6644 76.2128 67.4926 74.9665 68.9805C73.0653 71.2614 70.6853 72.258 67.6222 72.0756C62.327 71.7597 63.0875 73.1845 63.0241 67.0644C63.01 65.9836 63.4747 65.4853 64.5662 65.5134C65.4252 65.5415 66.2843 65.4923 67.1434 65.5134C67.8898 65.5274 68.5094 65.3028 69.0587 64.7765C71.4739 62.4604 73.6638 59.9689 75.3749 57.0773C77.4592 53.5541 77.6916 49.9677 75.9241 46.262C73.2413 40.6403 68.8967 36.4644 64.0381 32.7517C63.3621 32.2323 63.003 31.734 63.01 30.8988C63.0311 29.4881 63.0452 28.0704 62.9678 26.6667C62.9044 25.1578 61.6228 23.9717 60.2145 23.9998C58.7921 24.0278 57.5388 25.2139 57.4261 26.6948C57.3698 27.4458 57.3698 28.2108 57.405 28.9617C57.4613 30.218 57.0811 30.7233 55.708 30.3022C53.5955 29.6566 51.4478 29.1512 48.9481 28.4915C49.3424 29.2916 49.5326 29.6987 49.7297 30.0987C51.6873 33.9799 53.3068 37.9874 54.532 42.1633C56.4262 48.6202 55.8206 54.7051 52.1309 60.4181C51.3633 61.6042 50.6451 62.8183 49.8987 64.0185C49.1382 65.2467 49.2438 65.4783 50.6592 65.5064C52.328 65.5415 53.9969 65.5485 55.6657 65.5064C56.8487 65.4783 57.4754 65.8783 57.3979 67.1697C57.3345 68.2786 57.3486 69.3875 57.3979 70.4964C57.4331 71.5632 57.0458 72.0615 55.9051 72.0405C53.5814 71.9913 51.2507 72.0685 48.927 72.0124C46.216 71.9492 43.7796 69.8297 43.6036 67.1487C43.505 65.6046 42.8502 65.3309 41.5193 65.3449C37.4704 65.4011 33.4286 65.366 29.3797 65.366C27.049 65.366 26.8237 65.6187 27.0842 67.8716C28.1616 77.0867 35.6537 83.8804 44.9767 83.9506C54.3842 84.0208 63.7987 83.9366 73.2061 83.9927C75.8115 84.0068 77.931 83.0733 79.7477 81.3187C81.5785 79.5501 82.9657 77.4376 84.2683 75.2759C86.2611 71.9773 88.1834 68.5944 92.0351 67.0995C93.6406 66.4749 94.1335 65.4713 93.9645 63.85C93.8096 62.3762 93.6547 62.1797 92.1971 62.5937V62.5937Z" fill="#FF4D00"/>
</g>
<defs>
<clipPath id="clip0_209_2276">
<rect width="67" height="60" fill="white" transform="translate(27 24)"/>
</clipPath>
</defs>
</svg>
